X:15390
T:Shuters Hornpipe. GS.092
M:2/2
L:1/8
Q:160
S:George Spencer m/s, Leeds,1831
R:Hornpipe
O:England
A:Leeds
H:1831
Z:vmp.Cherri Graebe
K:A major
(EF/2G/2) | A2A2A2 cd | ecdB ABcA |[E2B2][E2B2][E2B2] fe | dcB
A GBGE | A2
A2A2 cd |! 
ecdB A2 a2 | gbge fafd | e2 ee e2 || GA | B2B2B2 cd | ecBA GBGE |! 
e2e2e2 fg | afed ce"BG in ms"cA | f2d2 dfaf | e2c2 ceae | fdec dBAG | A2
 AA A2
||


